!!!COM: Beethoven
!!!OTL: 13 Variationen uber "Es war einmal ein alter Mann" aus "Das rote Kappchen" von K. Ditters von Dittersdorf
!!!Variation: Theme c
**function	**harm	**kern	**kern
*	*	*clefF4	*clefG2
*	*	*k[f#c#g#]	*k[f#c#g#]
*M2/4	*M2/4	*M2/4	*M2/4
*A:	*A:	*A:	*A:
8D	8Vb	8G# 8e	8b'J
=13	=13	=13	=13
4D	4I	8A 8e	8cc#'L
.	.	8r	8ee'J
4D	4V/V	8B	8dd#'L
.	.	8r	8ff#'J
=14	=14	=14	=14
4.D	4.Vb	4G# 4B	8ee'L
.	.	.	8gg#'J
.	.	8r	8ee'L
8D	8Vb	8G# 8e	8b'J
=15	=15	=15	=15
4D	4I	8A 8e	8cc#'L
.	.	8r	8ee'J
4D	4V/V	8B	8dd#'L
.	.	8r	8ff#'J
=16	=16	=16	=16
4.D	4.Vb	4G# 4B	8ee'L
.	.	.	8gg#'J
.	.	8r	8ee'L
8D	8Vb	8G# 8e	8b'J
=17	=17	=17	=17
4D	4I	8A 8e	8cc#'L
.	.	8r	8ee'J
4D	4V/V	8B	8dd#'L
.	.	8r	8ff#'J
=18	=18	=18	=18
4.D	4.Vb	4G# 4B	8ee'L
.	.	.	8gg#'J
.	.	8r	8ee'L
8D	8Vb	8G# 8e	8b'J
=19	=19	=19	=19
4D	4I	8A 8e	8cc#'L
.	.	8r	8ee'J
4D	4V/V	8B	8dd#'L
.	.	8r	8ff#'J
=20	=20	=20	=20
4D	4V	8G# 8B	8ee'L
.	.	8r	8gg#'J
4D	4V7b/V	8D# 8B	8ff#'L
.	.	8r	8aa'J
=21	=21	=21	=21
4D	4V	8EL	8gg#'L
.	.	8G#J	8ee'J
4D	4V/V	8BL	8b'L
.	.	8BBJ	8dd#'J
=22	=22	=22	=22
2r	2r	2r;	2r;
=23	=23	=23	=23
4.D	4.V	4E 4e	4g# 4ee
.	.	8r	8r
*-	*-	*-	*-
